X: 1
T: the Warehouse
C: Neil Barron
R: jig
Z: 2012 John Chambers <jc:trillian.mit.edu>
M: 6/8
L: 1/8
K: C
G |\
"C"c2c cBc | "F"d2c "A7"A2G | "Dm"d2d "/C"def | "G7/B"e2d B2G |\
"C"g2e Gge | "F"d2c "Dm"Agf | "D7"edc "G7"d2B | "C"c3 c2 :|
|: d |\
"C"e2c Gec | "F"d2c "A7"AGA | "Dm"f2d "A7"Af^c | "D7"e2d "G7"BAB |\
"C"g2e Gge | "F"d2c "Dm"Agf | "D7"edc "G7"d2B | "C"c3 c2 :|
